X:0467
M:3/8
L:1/16
Q:3/8=66
K:G
    d2`e2``f2|.g2(ag)(fe)|.f2(gf)(ed)|(edef).g2|G3`AB2| B2g2`Bd |TA4  G2| G4  :|

